!!!COM: Bach, Johann Sebastian
!!!CDT: 1685/3//-1750/7/28/
!!!OTL@@DE: Wie schoen leuchtet der Morgenstern
!!!OTL@EN: How bright appears the morning star
!!!AGN: 4-Part Chorale
!!!SCT: BH 323
!!!SCT: BWV 172
**harm	**root	**kern	**kern	**kern	**kern
!	!	!bass	!tenor	!alto	!soprno
*	*Iorgan	*Iorgan	*Iorgan	*Iorgan	*Iorgan
*M4/4	*M4/4	*M4/4	*M4/4	*M4/4	*M4/4
*met(c)	*met(c)	*met(c)	*met(c)	*met(c)	*met(c)
*MM56	*MM56	*MM56	*MM56	*MM56	*MM56
*k[b-e-a-d-]	*k[b-e-a-d-]	*k[b-e-a-d-]	*k[b-e-a-d-]	*k[b-e-a-d-]	*k[b-e-a-d-]
*A-:	*A-:	*A-:	*A-:	*A-:	*A-:
*>[A,A,B]	*>[A,A,B]	*>[A,A,B]	*>[A,A,B]	*>[A,A,B]	*>[A,A,B]
*>A	*>A	*>A	*>A	*>A	*>A
I	4FF	4A-	4c	4e-	4a-
=1	=1	=1	=1	=1	=1
Vb	4CC	4G	4B-	4e-	8ee-
.	.	.	.	.	8dd-
I	8FF	8A-	8A-	4e-	8cc
Vb	8CC	8G	8B-	.	8b-
vi	4DD	4F	8c	8f	4a-
.	.	.	8d-	8g	.
Ib	4FF	4C	4e-	4a-	4ee-
=2	=2	=2	=2	=2	=2
IV	4BB-	8D-	8e-	4a-	4ff
.	.	8E-	16d-	.	.
.	.	.	16c	.	.
IVb	4BB-	8F	8d-	4a-	4ff
.	.	8G	8d-	.	.
I;	4FF;	4A-;	4c;	4a-;	4ee-;
Vb	4CC	4G	4e-	4b-	4ee-
=3	=3	=3	=3	=3	=3
vib	4DD	4A-	4e-	4cc	4ff
v/iii	4EE	4B-	4d	4b-	4gg
Ib	8FF	8c	8e-	8a-	4aa-
V7b/V	8GG	8d	8f	8b-	.
V	8CC	8e-	8g	4b-	4gg
Vb	8CC	8G	8B-	.	.
=4	=4	=4	=4	=4	=4
vib	4DD	8A-	8c	4a-	4ff
.	.	8F	8f	.	.
V7/V	4GG	4B-	4d	4a-	4ff
V;	4CC;	4E-;	4e-;	4g;	4ee-;
I	4FF	4A-	4e-	4a-	4cc
=5	=5	=5	=5	=5	=5
IV	4BB-	4D-	8d-	4a-	4ff
.	.	.	8c	.	.
V	4CC	4E-	4B-	4g	4ee-
IVb	8BB-	8F	8f	8a-	4dd-
V7b	8CC	8G	8e-	8b-	.
I	4FF	8A-	4e-	4a-	4cc
.	.	8D-	.	.	.
=6	=6	=6	=6	=6	=6
V	2CC	2E-	2e-	4a-	2b-
.	.	.	.	4g	.
I;	4FF;	4AA-;	4e-;	4a-;	4a-;
=:|!	=:|!	=:|!	=:|!	=:|!	=:|!
*>B	*>B	*>B	*>B	*>B	*>B
r	4r	4r	4r	4r	4r
=7	=7	=7	=7	=7	=7
Vb	2CC	2G	2e-	2b-	2ee-
I;	2FF;	2A-;	2e-;	2cc;	2cc;
=8	=8	=8	=8	=8	=8
V	2CC	2E-	2e-	2b-	2ee-
I;	2FF;	2AA-;	2e-;	2a-;	2cc;
!!linebreak: 2
=9	=9	=9	=9	=9	=9
I	4FF	8AA-	4e-	4a-	4cc
.	.	8BB-	.	.	.
Ib	4FF	8C	4e-	4a-	4cc
.	.	8D-	.	.	.
V	4CC	8E-	4e-	8g	4b-
.	.	8F	.	8f	.
Vb	4CC	8G	8e-	4e-	4b-
.	.	8E-	8d-	.	.
=10	=10	=10	=10	=10	=10
I	4FF	8A-	8c	4e-	4cc
.	.	8B-	8d-	.	.
Ib	4FF	8c	4e-	8e-	4cc
.	.	8d-	.	8f	.
V	4CC	8e-	4e-	4g	4b-
.	.	8d-	.	.	.
Vc	4CC	8c	4e-	4g	4b-
.	.	8B-	.	.	.
=11	=11	=11	=11	=11	=11
I	4FF	8A-	4e-	4a-	4cc
.	.	8G	.	.	.
vi	4DD	8F	4f	4a-	4cc
.	.	8E-	.	.	.
ii7b	4GG	8D-	4f	4a-	2b-
.	.	8BB-	.	.	.
V	4CC	4E-	8e-	4g	.
.	.	.	8d-	.	.
=12	=12	=12	=12	=12	=12
I;	2FF;	2AA-;	2c;	2a-;	2a-;
vi	4DD	8FF	8f	4cc	4aa-
.	.	8AA-	8e-	.	.
viiob	4EE	8BB-	4d-	4b-	4gg
.	.	8C	.	.	.
=13	=13	=13	=13	=13	=13
IV	4BB-	4D-	8d-	4a-	4ff
.	.	.	8c	.	.
V	4CC	4E-	4B-	4g	4ee-
IVb	4BB-	8F	8A-	4f	4dd-
.	.	8G	8B-	.	.
I	8FF	8A-	8c	4e-	4cc
Ib	8FF	8C	8e-	.	.
=14	=14	=14	=14	=14	=14
iib	4GG	8D-	8.d-	4f	2b-
.	.	8BB-	.	.	.
.	.	.	16c	.	.
V	4CC	4E-	4B-	4e-	.
I;	4FF;	4AA-;	4c;	4e-;	4a-;
==	==	==	==	==	==
*-	*-	*-	*-	*-	*-
!!chor2scor: -l 2 -o %b.pmx
!!!YEC: Copyright 1994, David Huron
!!!YEC: Changes/Additions 2001 by Craig Stuart Sapp
!!!YEN: United States of America
!!!SMA: 371 Bach Chorales, edited by Ludwig Erk, C.F. Peters
!!!PDT: 1850, 1865
!!!ONB: Harmony and Root analysis done manually
